X: 24203
T: Lord MacDonald
R: reel
M: 4/4
K: Gmajor
G2BG dGBG|cGBG AGEG|G2BG dGBG|DEDC B,G,G,2|
G2BG dGBG|cGBG AGEG|BdBA GFGE|DEGA BGG2||
Bdde dBGA|Bdeg aged|BddB dege|dBAd BGGd|
Bdde dBGA|Bdeg aged|Bdef gage|dBAd BGGB||
dgbg agbg|dgbg ageg|dgbg abge|dBAd BGGB|
dgbg agbg|dgbg ageg|bagf gage|dega bgg2||
Bdde dBGA|Bdeg aged|Bd (3ddd Bdge|dBAd BGGd|
Bdde dBGA|Bdeg aged|Bdef gage|dBAd BGGF||

